X: 20862
T: Jolly Angler, The
R: jig
M: 6/8
K: Amajor
e|aga f2e|cef ecB|ABc ABc|BAF AFE|
a3 f2e|cef ecB|A2a fec|ecBA3:|
AAA F2E|cBA F2E|A2A BAB|cff f2g|
a2f ecB|cef ecB|A2a fec|ecB A3:|

